X:14
T:Julia Scannell's Jig 
B:Terry "Cuz" Teahan "Sliabh Luachra on Parade" 1980
Z:Patrick Cavanagh
M:6/8
L:1/8
R:Jig
K:D
| AdA GBG | FAd fed | efe ABc | dfe dcB | 
AdA GBG | FAd fed | efe ABc | dfe d3 :| 
| FBc dcB | fBc dcB | cBc FAF | fgf edc | 
FBc dcB | fBc dcB | fgf efe | dBB B3 :|| 

